X:666
T:Angela and Saraha's Waltz
R:Waltz
C:Bruce Osborne  --  July 2 1990
M:3/4
L:1/8
K:A
cB|A2E2EE|F2D2DF|E3 FEC|A,4 (3A,CE|!
A2c2ee|a2g2 (3faf|e2d2c2|B4cB|!
A2E2EE|F2D2DF|E3 FEC|A,4 (3A,CE|!
A2c2ea|g2f2g2|a2e2c2|A4:|!
|:A2|A,3 CEA|c2 (3BcBA2|d3 efd|e4ef|!
e4ce|a2g2(3faf|e2d2c2|B6|!
A,3 CEA|c2(3BcBA2|d3 efd|e4ef|!
e2c2cc|d2B2G2|A3 GAB|A4:|!
